X:1
T:Scottish : Carr Manchot 1
Z:Ren Quiniou (http://www.irisa.fr/prive/quiniou)
R:scottish
C:Carr Manchot
A:Bretagne
S:
M:2/4
L:1/16
K:G
GBdg e2eg | d2dg e2eg | dBGB A3d |1 dcBA B2G2 :|2 dcBA G2BG ||
A2d2 d3c | BABc A2AB | c2cd c3d|1 BGGB G2BG :|2 BGGB G4 |]



